build/category/StrimOutline.svg

<svg xmlns="http://www.w3.org/2000/svg" fill="none" viewBox="0 0 24 24" focusable="false"><path d="M0 0H24V24H0z"/><path fill="#74767B" fill-rule="evenodd" d="M19.6284 13.9078C19.6768 13.5618 19.7019 13.2082 19.7019 12.8488C19.7019 9.64065 17.7081 6.90007 14.8872 5.76806C14.8366 4.23082 13.5625 3 11.9981 3C10.4336 3 9.15942 4.23095 9.10897 5.76831C6.28839 6.90048 4.29492 9.6409 4.29492 12.8488C4.29492 13.2082 4.31994 13.5617 4.36834 13.9077C3.54695 14.4127 3 15.3141 3 16.342C3 17.9232 4.29419 19.205 5.89066 19.205C6.38433 19.205 6.8491 19.0825 7.25564 18.8664C8.56394 19.8808 10.2109 20.4849 11.9984 20.4849C13.7858 20.4849 15.4328 19.8808 16.7411 18.8664C17.1476 19.0825 17.6123 19.205 18.106 19.205C19.7025 19.205 20.9966 17.9232 20.9966 16.342C20.9966 15.3141 20.4497 14.4128 19.6284 13.9078ZM13.5887 5.86302C13.5887 6.7145 12.8884 7.42604 11.9981 7.42604C11.1078 7.42604 10.4074 6.7145 10.4074 5.86302C10.4074 5.01153 11.1078 4.3 11.9981 4.3C12.8884 4.3 13.5887 5.01153 13.5887 5.86302ZM14.6215 7.06688C14.1625 8.04661 13.1604 8.72604 11.9981 8.72604C10.8359 8.72604 9.83385 8.04671 9.37473 7.0671C7.14444 8.05947 5.59492 10.2779 5.59492 12.8488C5.59492 13.0655 5.60592 13.2796 5.62741 13.4907C5.71411 13.483 5.80192 13.479 5.89066 13.479C7.48712 13.479 8.78131 14.7608 8.78131 16.342C8.78131 16.9555 8.58647 17.524 8.25472 17.99C9.30687 18.7416 10.5995 19.1849 11.9984 19.1849C13.3972 19.1849 14.6898 18.7416 15.742 17.99C15.4102 17.524 15.2153 16.9556 15.2153 16.342C15.2153 14.7608 16.5095 13.479 18.106 13.479C18.1948 13.479 18.2826 13.483 18.3694 13.4907C18.3909 13.2796 18.4019 13.0655 18.4019 12.8488C18.4019 10.2777 16.8521 8.05913 14.6215 7.06688ZM5.89066 17.905C6.78096 17.905 7.48131 17.1935 7.48131 16.342C7.48131 15.4905 6.78096 14.779 5.89066 14.779C5.00036 14.779 4.3 15.4905 4.3 16.342C4.3 17.1935 5.00036 17.905 5.89066 17.905ZM19.6966 16.342C19.6966 17.1935 18.9963 17.905 18.106 17.905C17.2157 17.905 16.5153 17.1935 16.5153 16.342C16.5153 15.4905 17.2157 14.779 18.106 14.779C18.9963 14.779 19.6966 15.4905 19.6966 16.342Z"/></svg>

<svg xmlns="http://www.w3.org/2000/svg" fill="none" viewBox="0 0 24 24" focusable="false"><path fill="#74767B" fill-rule="evenodd" d="M19.62 13.9c.05-.34.08-.7.08-1.06 0-3.2-2-5.94-4.82-7.08C14.83 4.23 13.56 3 11.99 3 10.43 3 9.15 4.23 9.1 5.76 6.28 6.9 4.29 9.64 4.29 12.84c0 .36.02.72.07 1.06-.82.51-1.36 1.41-1.36 2.44 0 1.58 1.29 2.86 2.89 2.86.49 0 .95-.12 1.36-.34a7.7 7.7 0 0 0 4.74 1.62c1.79 0 3.44-.6 4.75-1.62.4.22.87.34 1.36.34 1.6 0 2.89-1.28 2.89-2.86 0-1.03-.55-1.93-1.37-2.44m-6.04-8.04c0 .85-.7 1.56-1.59 1.56s-1.59-.71-1.59-1.56.7-1.57 1.59-1.57 1.59.72 1.59 1.57m1.04 1.2c-.46.98-1.46 1.66-2.63 1.66-1.16 0-2.16-.68-2.62-1.66-2.23.99-3.78 3.21-3.78 5.78 0 .22.01.43.03.65.09-.01.18-.02.27-.02 1.59 0 2.89 1.29 2.89 2.87 0 .61-.2 1.18-.53 1.65 1.05.75 2.34 1.19 3.74 1.19s2.69-.44 3.75-1.19a2.87 2.87 0 0 1-.53-1.65 2.88 2.88 0 0 1 2.89-2.87c.09 0 .18.01.26.02.03-.22.04-.43.04-.65 0-2.57-1.55-4.79-3.78-5.78M5.89 17.9c.89 0 1.59-.71 1.59-1.56s-.7-1.57-1.59-1.57-1.59.72-1.59 1.57.7 1.56 1.59 1.56m13.8-1.56c0 .85-.7 1.56-1.59 1.56s-1.59-.71-1.59-1.56.7-1.57 1.59-1.57 1.59.72 1.59 1.57"/></svg>
